src/lib/packages/icons/src/assets/line/hand-holding-dollar-circle.svg

<svg width="24" height="24" viewBox="0 0 24 24" fill="none" xmlns="http://www.w3.org/2000/svg">
<path d="M20.692 15.543C20.03 15.168 19.245 15.1779 18.592 15.5699L16.622 16.752C16.313 15.878 15.478 15.25 14.5 15.25H9C8.359 15.25 7.77601 15.48 7.30801 15.849C6.98701 15.485 6.523 15.25 6 15.25H4C3.035 15.25 2.25 16.035 2.25 17V21C2.25 21.965 3.035 22.75 4 22.75H6C6.522 22.75 6.98701 22.515 7.30801 22.151C7.77601 22.52 8.359 22.75 9 22.75H14.597C15.671 22.75 16.725 22.38 17.565 21.709L20.968 18.986C21.465 18.588 21.75 17.994 21.75 17.358C21.75 16.597 21.354 15.918 20.692 15.543ZM6.25 21C6.25 21.138 6.138 21.25 6 21.25H4C3.862 21.25 3.75 21.138 3.75 21V17C3.75 16.862 3.862 16.75 4 16.75H6C6.138 16.75 6.25 16.862 6.25 17V18V20V21ZM20.03 17.8149L16.627 20.537C16.053 20.996 15.332 21.249 14.596 21.249H9C8.311 21.249 7.75 20.688 7.75 19.999V17.999C7.75 17.31 8.311 16.749 9 16.749H14.5C14.914 16.749 15.25 17.085 15.25 17.499C15.25 17.913 14.914 18.249 14.5 18.249H11C10.586 18.249 10.25 18.585 10.25 18.999C10.25 19.413 10.586 19.749 11 19.749H14.5C15.343 19.749 16.08 19.283 16.465 18.595L19.364 16.856C19.626 16.697 19.863 16.798 19.953 16.848C20.042 16.899 20.25 17.05 20.25 17.358C20.25 17.537 20.17 17.7039 20.03 17.8149ZM12 13.75C15.446 13.75 18.25 10.946 18.25 7.5C18.25 4.054 15.446 1.25 12 1.25C8.554 1.25 5.75 4.054 5.75 7.5C5.75 10.946 8.554 13.75 12 13.75ZM12 2.75C14.619 2.75 16.75 4.881 16.75 7.5C16.75 10.119 14.619 12.25 12 12.25C9.381 12.25 7.25 10.119 7.25 7.5C7.25 4.881 9.381 2.75 12 2.75ZM10.167 7.34399C9.89899 6.99199 9.75 6.54499 9.75 6.08899C9.75 5.14099 10.382 4.34899 11.235 4.10999V4C11.235 3.586 11.571 3.25 11.985 3.25C12.399 3.25 12.735 3.586 12.735 4V4.09998C13.53 4.30798 14.144 4.99301 14.238 5.86401C14.283 6.27601 13.985 6.64604 13.573 6.69104C13.155 6.73304 12.79 6.438 12.746 6.026C12.715 5.742 12.496 5.52795 12.235 5.52795H11.762C11.479 5.52795 11.248 5.77899 11.248 6.08899C11.248 6.21899 11.288 6.34404 11.361 6.44104C11.436 6.54004 11.532 6.60601 11.644 6.63501L12.729 6.91504C13.625 7.14904 14.248 7.97096 14.248 8.91296C14.248 9.45596 14.042 9.97001 13.667 10.359C13.405 10.63 13.082 10.81 12.733 10.902V11.002C12.733 11.416 12.397 11.752 11.983 11.752C11.569 11.752 11.233 11.416 11.233 11.002V10.894C10.453 10.676 9.85301 9.99804 9.76001 9.13904C9.71501 8.72704 10.013 8.35701 10.425 8.31201C10.843 8.26801 11.207 8.56505 11.252 8.97705C11.283 9.26105 11.502 9.47498 11.763 9.47498H12.236C12.412 9.47498 12.533 9.37697 12.59 9.31897C12.693 9.21197 12.75 9.06804 12.75 8.91504C12.75 8.65504 12.587 8.43002 12.354 8.36902L11.269 8.08899C10.83 7.97099 10.439 7.70799 10.167 7.34399Z" fill="currentColor"/>
</svg>

<svg xmlns="http://www.w3.org/2000/svg" width="24" height="24" fill="none"><path fill="currentColor" d="M20.692 15.543a2.06 2.06 0 0 0-2.1.027l-1.97 1.182A2.254 2.254 0 0 0 14.5 15.25H9c-.641 0-1.224.23-1.692.599A1.74 1.74 0 0 0 6 15.25H4c-.965 0-1.75.785-1.75 1.75v4c0 .965.785 1.75 1.75 1.75h2c.522 0 .987-.235 1.308-.599A2.723 2.723 0 0 0 9 22.75h5.597c1.074 0 2.128-.37 2.968-1.041l3.403-2.723c.497-.398.782-.992.782-1.628 0-.761-.396-1.44-1.058-1.815ZM6.25 21a.25.25 0 0 1-.25.25H4a.25.25 0 0 1-.25-.25v-4a.25.25 0 0 1 .25-.25h2a.25.25 0 0 1 .25.25v4Zm13.78-3.185-3.403 2.722a3.263 3.263 0 0 1-2.031.712H9c-.689 0-1.25-.561-1.25-1.25v-2c0-.689.561-1.25 1.25-1.25h5.5a.75.75 0 0 1 0 1.5H11a.75.75 0 0 0 0 1.5h3.5c.843 0 1.58-.466 1.965-1.154l2.899-1.739a.574.574 0 0 1 .589-.008.577.577 0 0 1 .297.51.58.58 0 0 1-.22.457ZM12 13.75a6.257 6.257 0 0 0 6.25-6.25A6.257 6.257 0 0 0 12 1.25 6.257 6.257 0 0 0 5.75 7.5 6.257 6.257 0 0 0 12 13.75Zm0-11a4.756 4.756 0 0 1 4.75 4.75A4.756 4.756 0 0 1 12 12.25 4.756 4.756 0 0 1 7.25 7.5 4.756 4.756 0 0 1 12 2.75Zm-1.833 4.594a2.084 2.084 0 0 1-.417-1.255c0-.948.632-1.74 1.485-1.979V4a.75.75 0 0 1 1.5 0v.1a2.038 2.038 0 0 1 1.503 1.764.75.75 0 1 1-1.492.162c-.031-.284-.25-.498-.511-.498h-.473c-.283 0-.514.251-.514.561 0 .13.04.255.113.352a.513.513 0 0 0 .283.194l1.085.28a2.053 2.053 0 0 1 1.519 1.998c0 .543-.206 1.057-.581 1.446a1.997 1.997 0 0 1-.934.543v.1a.75.75 0 0 1-1.5 0v-.108A2.04 2.04 0 0 1 9.76 9.139a.75.75 0 1 1 1.492-.162c.031.284.25.498.511.498h.473a.5.5 0 0 0 .354-.156.58.58 0 0 0 .16-.404.553.553 0 0 0-.396-.546l-1.085-.28a2.04 2.04 0 0 1-1.102-.745Z"/></svg>
